icon_installer/data/icons/scalable/actions/show-camera-iso-alt-symbolic.svg

<?xml version="1.0" encoding="UTF-8"?>
<svg height="16px" viewBox="0 0 16 16" width="16px" xmlns="http://www.w3.org/2000/svg">
    <g fill="#222222">
        <path d="m 0 3 v 10 h 2 v -10 z m 0 0"/>
        <path d="m 5 3 c -0.832031 0 -1.523438 0.5625 -1.769531 1.050781 c -0.246094 0.492188 -0.230469 0.949219 -0.230469 0.949219 v 2 c 0 0.832031 0.5625 1.523438 1.050781 1.769531 c 0.492188 0.246094 0.949219 0.230469 0.949219 0.230469 h 2 v 2 h -4 v 2 h 4 s 0.457031 0.015625 0.949219 -0.230469 c 0.488281 -0.246093 1.050781 -0.9375 1.050781 -1.769531 v -2 c 0 -0.832031 -0.5625 -1.523438 -1.050781 -1.769531 c -0.492188 -0.246094 -0.949219 -0.230469 -0.949219 -0.230469 h -2 v -2 h 4 v -2 z m 0 0"/>
        <path d="m 12.5 3 c -1.367188 0 -2.5 1.132812 -2.5 2.5 v 5 c 0 1.367188 1.132812 2.5 2.5 2.5 h 1 c 1.367188 0 2.5 -1.132812 2.5 -2.5 v -5 c 0 -1.367188 -1.132812 -2.5 -2.5 -2.5 z m 0 2 h 1 c 0.292969 0 0.5 0.207031 0.5 0.5 v 5 c 0 0.292969 -0.207031 0.5 -0.5 0.5 h -1 c -0.292969 0 -0.5 -0.207031 -0.5 -0.5 v -5 c 0 -0.292969 0.207031 -0.5 0.5 -0.5 z m 0 0"/>
    </g>
</svg>

<svg xmlns="http://www.w3.org/2000/svg" width="16" height="16"><path fill="#222" d="M0 3v10h2V3zm5 0c-.832 0-1.523.563-1.77 1.05C2.984 4.544 3 5 3 5v2c0 .832.563 1.523 1.05 1.77.493.246.95.23.95.23h2v2H3v2h4s.457.016.95-.23C8.437 12.523 9 11.832 9 11V9c0-.832-.562-1.523-1.05-1.77C7.456 6.984 7 7 7 7H5V5h4V3zm7.5 0A2.518 2.518 0 0 0 10 5.5v5c0 1.367 1.133 2.5 2.5 2.5h1c1.367 0 2.5-1.133 2.5-2.5v-5C16 4.133 14.867 3 13.5 3zm0 2h1c.293 0 .5.207.5.5v5a.48.48 0 0 1-.5.5h-1a.48.48 0 0 1-.5-.5v-5c0-.293.207-.5.5-.5zm0 0"/></svg>
